X: 1
T: Liquid Assets
C:\251 George Meikle
B: George Meikle "Originally Mine" p.16
R: jig
Z: 2010 John Chambers <jc:trillian.mit.edu>
N: [jc] Should the B flat in bars 22 and 30 be B natural, to match the G7 chord?
M: 6/8
L: 1/8
K: F
c |\
"F"FG_A "C7"=AB=B | "F"c2A "A/F7"G2F | "Bb"BAB "F7"c2^c | "Bb"d3 "D/Bb"d2d |\
"C7"c=Bc "G7"d2^d | "C"e2d "E/C"c2e | "F"fed "E/C"edc | "Dm"dcB "C7"cAG |
"F"FG_A "C7"=AB=B | "F"c2A "A/F7"G2F | "Bb"BAB "F7"c2^c | "Bb"d3 "D/Bb"d2d |\
"C7"c=Bc "G7"d2^d | "C"e2d "E/C"c2e | "Bb"fed "C7"cde | "F"f3 f2g ||
"F"agf "E/C"gfe | "Cm"fed "C/F7"edc | "Bb"dcB "A/F"cBA | "Bb"BAG "B/G7"AGF |\
"C"GFE "G7"FED | "C"EDC "G7"DCB, | "C"CDC "E/C7"FG_A | "F"A3 "C7"f2g |
"F"agf "E/C"gfe | "Cm"fed "C/F7"edc | "Bb"dcB "A/F"cBA | "Bb"BAG "B/G7"AGF |\
"C"GFE "G7"FED | "C"EDC "G7"DCB, | "C"CDC "E/C7"EFG | "F"F3 F3 |]
%%begintext align
The original tune for "Liquid Assets" devised by John Drewry in 2002. This was first published in "Thirty Years On", a suite of 5 Scottish Country Dances to celebrate the 30th year of overseas winter holidays initially started by Mary Prentice and subsequently continued after her death by JAG Dancers.
%%endtext

%%sep 1 1 500
%%sep 1 1 500

